X: 3407
T: BONNIE BANKS O' LOCH LOMOND
Q: "Moderato."
%R: air, march
B: James Kerr "Merry Melodies" v.3 p.45 #407
Z: 2016 John Chambers <jc:trillian.mit.edu>
M: C
L: 1/8
K: G
!p!uD |\
G2G2 G2B2 | ABAG E2(DE) | G2G2 G2(Bd) | e4 d3d |\
e2ed B2Bd | cBAG E2(DE) | G2Bd e2dB | A4 G3 |]
e |\
d2de g2Bd | cBAG E3e | d2(de) g2d2 | (B3c d3)d |\
gfed B2(Bd) | cBAG E2(DE) | G2Bd e2dB | A4 G3 |]
!f!D |\
G2G>A B2A>G | ABAG E2(D>E) | G2G>G G2(Bd) | e4 d3d |\
gfed B2(Bd) | cBAG E2D>E | G<G B<d e2d>B | A4 G2 |]

%%sep 1 1 500
%%sep 1 1 500

